X:25
T:House of Cluny, The
R:strathspey
C:William Marshall
S:1822 Collection p57
B:Athole
Z:Paul Stewart Cranford (P.S.C.), <http://www.cranfordpub.com>
M:C
L:1/8
Q:266
K:F
C|F<FA>F A<c F2|E>GG<c G<cE>C|F<FA>F A>cf>c|d/c/B/A/ Gc/B/ A<FF:|
||c|f/e/d/c/ fcdc f2|f>cd<c f<age|f/e/d/c/ f>c d<Bd<B|c>BAG F2 Fc|
f/e/d/c/ fcdc f2|f>cd<c f<age|f/g/a/g/ fc dfBd|c>A c/B/A/G/ F2 F|]

